static/img/site/olake.svg

<svg width="21" height="21" viewBox="0 0 21 21" fill="none" xmlns="http://www.w3.org/2000/svg">
<rect x="1.32083" y="1.32083" width="18.3583" height="18.3583" rx="4.33749" fill="#193AE6"/>
<rect x="1.32083" y="1.32083" width="18.3583" height="18.3583" rx="4.33749" stroke="url(#paint0_linear_217_873)" stroke-width="1.00835"/>
<path d="M15.3416 6.46515C15.3416 6.01948 14.9803 5.6582 14.5347 5.6582L6.46524 5.6582C6.01958 5.6582 5.65829 6.01949 5.65829 6.46515L5.65829 9.98717C5.65829 10.4663 6.07281 10.8395 6.55007 10.7973C10.4556 10.452 15.1277 10.46 12.5642 11.8389C10.6932 12.8454 11.976 13.2167 13.0991 13.5418C13.83 13.7534 14.4933 13.9454 14.1756 14.2801C13.8126 14.6627 14.0571 14.916 14.4353 15.0788C14.8889 15.2741 15.3416 14.8689 15.3416 14.3751L15.3416 6.46515Z" fill="white"/>
<defs>
<linearGradient id="paint0_linear_217_873" x1="16.5521" y1="-0.393766" x2="-6.44585" y2="22.2007" gradientUnits="userSpaceOnUse">
<stop stop-color="#193AE6"/>
<stop offset="1" stop-color="#576BD3"/>
</linearGradient>
</defs>
</svg>

<svg xmlns="http://www.w3.org/2000/svg" width="21" height="21" fill="none" viewBox="0 0 21 21"><rect width="18.358" height="18.358" x="1.321" y="1.321" fill="#193ae6" rx="4.337"/><rect width="18.358" height="18.358" x="1.321" y="1.321" stroke="url(#a)" stroke-width="1.008" rx="4.337"/><path fill="#fff" d="M15.342 6.465a.807.807 0 0 0-.807-.807h-8.07a.807.807 0 0 0-.807.807v3.522c0 .48.415.852.892.81 3.906-.345 8.578-.337 6.014 1.042-1.87 1.006-.588 1.378.535 1.703.731.211 1.394.403 1.077.738-.363.383-.119.636.26.799.453.195.906-.21.906-.704z"/><defs><linearGradient id="a" x1="16.552" x2="-6.446" y1="-.394" y2="22.201" gradientUnits="userSpaceOnUse"><stop stop-color="#193ae6"/><stop offset="1" stop-color="#576bd3"/></linearGradient></defs></svg>
